svg/u2705.svg

<svg viewBox="0 0 128 128" xmlns="http://www.w3.org/2000/svg">
  <linearGradient id="b" gradientTransform="translate(0 -4122)" gradientUnits="userSpaceOnUse" x1="64" x2="64" y1="4126.2" y2="4246.4">
    <stop offset="0" stop-color="#81C784"/>
    <stop offset=".4141" stop-color="#6EBE71"/>
    <stop offset="1" stop-color="#4CAF50"/>
  </linearGradient>
  <path d="m116 124h-104c-4.4 0-8-3.6-8-8v-104c0-4.4 3.6-8 8-8h104c4.4 0 8 3.6 8 8v104c0 4.4-3.6 8-8 8z" fill="url(#b)"/>
  <g opacity=".2">
    <path d="m116 7c2.8 0 5 2.2 5 5v104c0 2.8-2.2 5-5 5h-104c-2.8 0-5-2.2-5-5v-104c0-2.8 2.2-5 5-5h104m0-3h-104c-4.4 0-8 3.6-8 8v104c0 4.4 3.6 8 8 8h104c4.4 0 8-3.6 8-8v-104c0-4.4-3.6-8-8-8z" fill="#424242"/>
  </g>
  <linearGradient id="a" gradientTransform="translate(0 -4122)" gradientUnits="userSpaceOnUse" x1="63.984" x2="63.984" y1="4140.5" y2="4231.8">
    <stop offset="0" stop-color="#fff"/>
    <stop offset=".5111" stop-color="#EBEBEB"/>
    <stop offset="1" stop-color="#E1E1E1"/>
  </linearGradient>
  <path d="m42.8 109.5c-0.5 0-1 0-1.6-0.1-3.3-0.6-6-2.9-7.1-6.1l-15.1-45.5c-1.6-4.8 1-9.9 5.8-11.5s9.9 1 11.5 5.8l9.8 29.5 47.1-59.6c3.1-3.9 8.8-4.6 12.8-1.5 3.9 3.1 4.6 8.8 1.5 12.8l-57.6 72.7c-1.7 2.2-4.4 3.5-7.1 3.5z" fill="url(#a)"/>
  <g opacity=".2">
    <path d="m100.4 20.8c1.5 0 3 0.5 4.2 1.5 1.4 1.1 2.3 2.8 2.5 4.6s-0.3 3.6-1.4 5l-57.6 72.8c-1.3 1.6-3.3 2.6-5.4 2.6-0.4 0-0.8 0-1.2-0.1-2.5-0.4-4.5-2.2-5.3-4.6l-15.1-45.5c-1.2-3.6 0.7-7.4 4.3-8.6 0.7-0.2 1.4-0.4 2.2-0.4 2.9 0 5.5 1.9 6.5 4.7l9.8 29.5c0.3 0.8 0.9 1.4 1.8 1.5h0.4c0.7 0 1.3-0.3 1.8-0.9l47.1-59.5c1.3-1.7 3.3-2.6 5.4-2.6m0-2.3c-2.7 0-5.3 1.2-7.1 3.4l-47.2 59.6-9.8-29.5c-1.3-3.8-4.8-6.2-8.6-6.2-1 0-1.9 0.2-2.9 0.5-4.8 1.6-7.4 6.7-5.8 11.5l15.2 45.5c1.1 3.2 3.8 5.5 7.1 6.1 0.5 0.1 1.1 0.1 1.6 0.1 2.8 0 5.4-1.3 7.1-3.4l57.6-72.8c3.1-3.9 2.5-9.7-1.5-12.8-1.7-1.3-3.7-2-5.7-2z" fill="#424242"/>
  </g>
</svg>

<svg viewBox="0 0 128 128" xmlns="http://www.w3.org/2000/svg" xmlns:xlink="http://www.w3.org/1999/xlink">
  <linearGradient id="SVGID_1_" gradientTransform="matrix(1 0 0 1 0 -4121.9702)" gradientUnits="userSpaceOnUse" x1="64" x2="64" y1="4126.2202" y2="4246.3799">
    <stop offset="0" style="stop-color:#81C784"/>
    <stop offset="0.4141" style="stop-color:#6EBE71"/>
    <stop offset="1" style="stop-color:#4CAF50"/>
  </linearGradient>
  <path d="M116,124H12c-4.4,0-8-3.6-8-8V12c0-4.4,3.6-8,8-8h104c4.4,0,8,3.6,8,8v104 C124,120.4,120.4,124,116,124z" fill="url(#SVGID_1_)"/>
  <g opacity="0.2">
    <path d="M116,7c2.8,0,5,2.2,5,5v104c0,2.8-2.2,5-5,5H12c-2.8,0-5-2.2-5-5V12c0-2.8,2.2-5,5-5H116 M116,4H12 c-4.4,0-8,3.6-8,8v104c0,4.4,3.6,8,8,8h104c4.4,0,8-3.6,8-8V12C124,7.6,120.4,4,116,4z" fill="#424242"/>
  </g>
  <linearGradient id="SVGID_2_" gradientTransform="matrix(1 0 0 1 0 -4121.9702)" gradientUnits="userSpaceOnUse" x1="63.9838" x2="63.9838" y1="4140.5303" y2="4231.7754">
    <stop offset="0" style="stop-color:#FFFFFF"/>
    <stop offset="0.5111" style="stop-color:#EBEBEB"/>
    <stop offset="1" style="stop-color:#E1E1E1"/>
  </linearGradient>
  <path d="M42.8,109.5c-0.5,0-1,0-1.6-0.1c-3.3-0.6-6-2.9-7.1-6.1L19,57.8c-1.6-4.8,1-9.9,5.8-11.5 c4.8-1.6,9.9,1,11.5,5.8l9.8,29.5L93.2,22c3.1-3.9,8.8-4.6,12.8-1.5c3.9,3.1,4.6,8.8,1.5,12.8L49.9,106 C48.2,108.2,45.5,109.5,42.8,109.5z" fill="url(#SVGID_2_)"/>
  <g opacity="0.2">
    <path d="M100.4,20.8c1.5,0,3,0.5,4.2,1.5c1.4,1.1,2.3,2.8,2.5,4.6c0.2,1.8-0.3,3.6-1.4,5l-57.6,72.8 c-1.3,1.6-3.3,2.6-5.4,2.6c-0.4,0-0.8,0-1.2-0.1c-2.5-0.4-4.5-2.2-5.3-4.6L21.1,57.1c-1.2-3.6,0.7-7.4,4.3-8.6 c0.7-0.2,1.4-0.4,2.2-0.4c2.9,0,5.5,1.9,6.5,4.7l9.8,29.5c0.3,0.8,0.9,1.4,1.8,1.5c0.1,0,0.3,0,0.4,0c0.7,0,1.3-0.3,1.8-0.9 L95,23.4C96.3,21.7,98.3,20.8,100.4,20.8 M100.4,18.5c-2.7,0-5.3,1.2-7.1,3.4L46.1,81.5L36.3,52c-1.3-3.8-4.8-6.2-8.6-6.2 c-1,0-1.9,0.2-2.9,0.5C20,47.9,17.4,53,19,57.8l15.2,45.5c1.1,3.2,3.8,5.5,7.1,6.1c0.5,0.1,1.1,0.1,1.6,0.1c2.8,0,5.4-1.3,7.1-3.4 l57.6-72.8c3.1-3.9,2.5-9.7-1.5-12.8C104.4,19.2,102.4,18.5,100.4,18.5z" fill="#424242"/>
  </g>
</svg>
